images/social/whatsapp.svg

<svg xmlns="http://www.w3.org/2000/svg" width="253.01" height="255.06" viewBox="0 0 253.01 255.06"><defs><style>.a{fill:#333;}</style></defs><title>whatsapp</title><path class="a" d="M43.58,35.65A124.67,124.67,0,0,1,118,.9c12.37-.75,24.9-.58,37.07,2,25,5.29,48.78,18,66,37C245.43,65.16,257.18,101.28,254,136a122.45,122.45,0,0,1-25.37,64.6,123.74,123.74,0,0,1-67.4,44.5c-15.36,4.08-31.45,4.53-47.2,2.89-15.41-2-30.23-7.25-44-14.35Q35.8,244.73,1.5,255.57c6.9-22,14.65-43.63,21.7-65.53.56-1.93-1.19-3.49-1.82-5.19A123.15,123.15,0,0,1,7.72,104.53,121.88,121.88,0,0,1,43.58,35.65M58.47,50.46a104.52,104.52,0,0,0-31.11,63.48,222.27,222.27,0,0,0,.47,25.81C30.74,156,36.53,172,46.61,185.3c-4,12.79-9.1,25.27-12.44,38.27,13-4.17,26-8.41,39.08-12.57,19.31,12.59,42.8,18.88,65.8,16.66A102.9,102.9,0,0,0,203,198.05a104.44,104.44,0,0,0,30.37-64.28,158.11,158.11,0,0,0-.62-23.64c-3.05-20.28-12-39.79-26.08-54.77-16.36-18.62-39.85-30.5-64.4-33.44-5.42-.36-10.85-.62-16.29-.64A103.75,103.75,0,0,0,58.47,50.46Z" transform="translate(-1.5 -0.51)"/><path class="a" d="M82.79,65.61C87,62.86,92.19,64,96.85,64.42a4.55,4.55,0,0,1,3.77,3c3.54,8.19,6.63,16.57,9.72,25,.7,2.07,1.7,4.4.64,6.55-2.35,5.48-7.26,9.21-10.52,14.09-.57,1.65.6,3.15,1.24,4.58A86.8,86.8,0,0,0,144,156.14a4.19,4.19,0,0,0,4.58-.48c4.55-3.87,8.08-8.75,12.08-13.15.8-1.08,2.12-1.38,3.3-1.82,7.68,2.55,14.54,6.94,21.69,10.62,3,1.74,6.22,3.11,8.87,5.35.69,8.18-1.5,17.47-8.51,22.49-5.57,4-12.07,7.31-19.06,7.36-5,.22-10.1.06-14.82-1.75a203.82,203.82,0,0,1-24.48-10.32C115,168,104.17,158.5,95.07,147.73c-8.41-10.12-16.21-20.92-21.9-32.83-4.72-9.75-6.65-21.34-3.09-31.78C72.48,76.25,76.68,69.72,82.79,65.61Z" transform="translate(-1.5 -0.51)"/></svg>

<?xml version="1.0" encoding="UTF-8" ?>
<!DOCTYPE svg PUBLIC "-//W3C//DTD SVG 1.1//EN" "http://www.w3.org/Graphics/SVG/1.1/DTD/svg11.dtd">
<svg width="256pt" height="256pt" viewBox="0 0 256 256" version="1.1" xmlns="http://www.w3.org/2000/svg">
<g>
<path fill="#fff" opacity="1.00" d=" M 43.58 35.65 C 63.53 16.13 90.24 3.59 118.03 0.90 C 130.40 0.15 142.93 0.32 155.10 2.90 C 180.13 8.19 203.88 20.87 221.10 39.94 C 245.43 65.16 257.18 101.28 254.00 136.02 C 252.08 159.42 243.02 182.09 228.63 200.62 C 211.96 222.41 187.85 238.41 161.23 245.12 C 145.87 249.20 129.78 249.65 114.03 248.01 C 98.62 245.99 83.80 240.76 70.03 233.66 C 47.21 241.04 24.37 248.36 1.50 255.57 C 8.40 233.62 16.15 211.94 23.20 190.04 C 23.76 188.11 22.01 186.55 21.38 184.85 C 7.99 160.60 2.88 131.85 7.72 104.53 C 11.81 78.48 24.48 53.86 43.58 35.65 M 58.47 50.46 C 41.08 67.11 30.01 90.05 27.36 113.94 C 26.97 122.54 27.22 131.17 27.83 139.75 C 30.74 156.03 36.53 172.04 46.61 185.30 C 42.59 198.09 37.51 210.57 34.17 223.57 C 47.20 219.40 60.21 215.16 73.25 211.00 C 92.56 223.59 116.05 229.88 139.05 227.66 C 162.98 225.76 186.01 215.00 202.98 198.05 C 220.25 181.07 231.11 157.86 233.35 133.77 C 233.60 125.89 233.66 117.97 232.73 110.13 C 229.68 89.85 220.76 70.34 206.65 55.36 C 190.29 36.74 166.80 24.86 142.25 21.92 C 136.83 21.56 131.40 21.30 125.96 21.28 C 100.92 22.36 76.39 32.90 58.47 50.46 Z" />
<path fill="#fff" opacity="1.00" d=" M 82.79 65.61 C 86.98 62.86 92.19 64.00 96.85 64.42 C 98.56 64.56 100.03 65.82 100.62 67.42 C 104.16 75.61 107.25 83.99 110.34 92.37 C 111.04 94.44 112.04 96.77 110.98 98.92 C 108.63 104.40 103.72 108.13 100.46 113.01 C 99.89 114.66 101.06 116.16 101.70 117.59 C 111.00 134.67 125.97 148.63 143.96 156.14 C 145.45 156.75 147.30 156.87 148.54 155.66 C 153.09 151.79 156.62 146.91 160.62 142.51 C 161.42 141.43 162.74 141.13 163.92 140.69 C 171.60 143.24 178.46 147.63 185.61 151.31 C 188.59 153.05 191.83 154.42 194.48 156.66 C 195.17 164.84 192.98 174.13 185.97 179.15 C 180.40 183.12 173.90 186.46 166.91 186.51 C 161.92 186.73 156.81 186.57 152.09 184.76 C 143.76 181.75 135.48 178.51 127.61 174.44 C 115.02 167.98 104.17 158.50 95.07 147.73 C 86.66 137.61 78.86 126.81 73.17 114.90 C 68.45 105.15 66.52 93.56 70.08 83.12 C 72.48 76.25 76.68 69.72 82.79 65.61 Z" />
</g>
</svg>
